!!!!SEGMENT: Distler_Jahrkreis_32_Erhalt-uns-Herr-bei-deinem-Wort_3v.krn
!!!COM: Distler, Hugo
!!!CDT: 1908-1942
!!!OPR@@DE: Der Jahrkreis
!!!OPR@EN: The Year Cycle
!!!OTL@@DE: Erhalt uns, Herr, bei deinem Wort
!!!OTL@EN: Keep us, Lord, faithful to your word
!!!OPS: 5
!!!ONM: 32
**kern	**text	**kern	**text	**kern	**text
*part3	*part3	*part2	*part2	*part1	*part1
*staff3	*staff3	*staff2	*staff2	*staff1	*staff1
*Ibass	*	*Ialto	*	*Isoprn	*
*clefF4	*	*clefG2	*	*clefG2	*
*k[b- e-]	*	*k[b- e-]	*	*k[b- e-]	*
*MM120	*	*MM120	*	*MM120	*
*M3/2	*	*M3/2	*	*M3/2	*
*>[A,A1,A,A1,A,A3,B]	*>[A,A1,A,A1,A,A3,B]	*>[A,A1,A,A1,A,A3,B]	*>[A,A1,A,A1,A,A3,B]	*>[A,A1,A,A1,A,A3,B]	*>[A,A1,A,A1,A,A3,B]
*>norep[A,A3,B]	*>norep[A,A3,B]	*>norep[A,A3,B]	*>norep[A,A3,B]	*>norep[A,A3,B]	*>norep[A,A3,B]
*>A	*>A	*>A	*>A	*>A	*>A
2r	.	4r	.	2g	Er-
.	.	4d	Er-	.	.
=1	=1	=1	=1	=1	=1
4r	.	4e-	halt'	4b-	halt'
4G	Er-	4d	uns,	4g	uns,
8B-	halt'	4.c	Herr,	4f	Herr,
8A	uns,	.	.	.	.
4.G	Herr,	.	.	4g	bei
.	.	8c	bei	.	.
.	.	4B-	dei-	4b-	dei-
8A	bei	.	.	.	.
8F	dei-	4c	nem	4a	nem
8E-	nem	.	.	.	.
=2	=2	=2	=2	=2	=2
*M2/2	*	*M2/2	*	*M2/2	*
2.G,	Wort	8d,	Wort	2g,	Wort
.	.	8d	und	.	.
.	.	(4.e-	steu'-	.	.
.	.	.	.	2b-	und
.	.	8fL	.	.	.
4G	und	8e-	.	.	.
.	.	8dJ)	.	.	.
!!LO:LB:g=original
=3	=3	=3	=3	=3	=3
*M3/2	*	*M3/2	*	*M3/2	*
4.A-	steu'-	4c	re	4cc	steu'-
.	.	4g	dei-	4cc	re
8A-	re	.	.	.	.
8G	dei-	4a-	ner	4.dd	dei-
8F	ner	.	.	.	.
2c	Fein-	(4g	Fein-	.	.
.	.	.	.	8b-	ner
.	.	4f)	.	4cc	Fein-
*^		*	*	*	*	*
4c	4c	de	4e-	de	4cc	de
=4	=4	=4	=4	=4	=4	=4
*M2/2	*M2/2	*	*M2/2	*	*M2/2	*
2Bn,	2G	Mord,	2g,	Mord,	2dd,	Mord,
2B-	2B-	die	2f	die	2dd	die
*v	*v	*	*	*	*	*
=5	=5	=5	=5	=5	=5
*M3/2	*	*M3/2	*	*M3/2	*
4E-	Je-	4g	Je-	4ee-	Je-
4E-	sum	(8fL	sum	4dd	sum
.	.	8e-J)	.	.	.
2.B-	Chri-	4d	Chri-	4ff	Chri-
.	.	4f	stum,	4dd	stum,
.	.	4g	dei-	4cc	dei-
4An	stum,	(8fL	nem	4cc	nem
.	.	8e-J)	.	.	.
!!LO:LB:g=original
=6	=6	=6	=6	=6	=6
*>A1	*>A1	*>A1	*>A1	*>A1	*>A1
*M2/2	*	*M2/2	*	*M2/2	*
*	*	*	*	*^		*
8G	dei-	4d,	Sohn,	4b-,	4b-	Sohn,
8G	nem	.	.	.	.	.
4D,	Sohn,	2f#	wol-	2dd	2a	wol-
4.d	wol-	.	.	.	.	.
.	.	4g	len	4b-	4b-	len
8d	len	.	.	.	.	.
*	*	*	*	*v	*v	*
=7	=7	=7	=7	=7	=7
4E-	stuer-	(8aL	stuer-	4cc	stuer-
.	.	8g	.	.	.
8E-	zen	8fn	.	8b-	zen
8C	von	8e-J)	.	8a	von
4D	dei-	4.d	zen	4g	dei-
4D	nem	.	.	4f#	nem
.	.	8d	von	.	.
=8	=8	=8	=8	=8	=8
*M3/2	*	*M3/2	*	*M3/2	*
*^		*	*	*	*	*
1G	1GGN	Thron!	(8dLL	dei	1g	Thron!
*v	*v	*	*	*	*	*
.	.	16c	.	.	.
.	.	16B-	.	.	.
.	.	8cJJ)	.	.	.
.	.	8e-	nem	.	.
.	.	2d	Thron!	.	.
!!LO:LB:g=original
=||9	=9	=||9	=9	=||9	=9
*>A3	*>A3	*>A3	*>A3	*>A3	*>A3
*M2/2	*	*M2/2	*	*M2/2	*
*	*	*	*	*^		*
8G	letz-	4d,	Not,	4b-,	4b-	Not,
8G	ten	.	.	.	.	.
2D,	Not,	2f	g'leit	2dd	2a	g'leit
4B-	g'leit	[4g	uns_	4b-	4b-	uns
*	*	*	*	*v	*v	*
=10	=10	=10	=10	=10	=10
*>B	*>B	*>B	*>B	*>B	*>B
*M3/2	*	*M3/2	*	*M3/2	*
4A	uns	4g]	.	4cc	in's
4G	in's	4g	in's	2b-	Le-
4.D	Le-	4f	Le-	.	.
.	.	4e-	ben	4a	ben
8D	ben	.	.	.	.
4E-	aus	4d	aus	4g	aus
4C	dem	4c	dem	4f#	dem
=11	=11	=11	=11	=11	=11
*^		*	*	*	*	*
*	*	*	*^		*	*	*
1G	1GGN	Tod!	1G	1gN	Tod!	1g	Tod!
*	*	*	*v	*v	*	*	*
*v	*v	*	*	*	*	*
!!LO:LB:g=original
=12||	=12	=12||	=12	=12||	=12
*M3/2	*	*M3/2	*	*M3/2	*
2r	.	2c	Be-	2r	.
=13	=13	=13	=13	=13	=13
1.r	.	4e-	weis'	2g	Be-
.	.	4c	dein'	.	.
.	.	4B-	Macht,	4b-	weis'
.	.	4c	Herr	4g	dein'
.	.	4e-	Je-	8f	Macht,
.	.	.	.	8g	Herr
.	.	4d	su	([4b-	Je-
=14	=14	=14	=14	=14	=14
*M2/2	*	*M2/2	*	*M2/2	*
1r	.	2c,	Christ,	8b-L]	.
.	.	.	.	8aJ)	.
.	.	.	.	4g	su
.	.	2e-	der	8g,	Christ,
.	.	.	.	8b-	der
.	.	.	.	4cc	du
!!LO:LB:g=original
=15	=15	=15	=15	=15	=15
*M3/2	*	*M3/2	*	*M3/2	*
1.r	.	4f	du	4.cc,	Herr,
.	.	4f	Herr	.	.
.	.	.	.	8cc	der
.	.	4g	al-	4cc	du
.	.	4e-	ler	4cc	Herr
.	.	4f	Her-	(4.dd	al-
.	.	4f	ren	.	.
.	.	.	.	8cc)	.
=16	=16	=16	=16	=16	=16
*M2/2	*	*M2/2	*	*M2/2	*
1r	.	2.g,	bist,	4b-	ler
.	.	.	.	4cc	Her-
.	.	.	.	4cc	ren
.	.	4g	be-	[4dd	bist,_
=17	=17	=17	=17	=17	=17
*M3/2	*	*M3/2	*	*M3/2	*
1.r	.	(4a-	schirm'_	4dd],	.
.	.	4.g)	.	4dd	be-
.	.	.	.	(4.ee-	schirm'_
.	.	8b-	dein'	.	.
.	.	8a-	ar-	.	.
.	.	8g	me	4dd)	.
.	.	4f	Chri-	.	.
.	.	.	.	8ff	dein'
.	.	4f	sten-	8ee-	ar-
.	.	.	.	8dd	me
!!LO:LB:g=original
=18	=18	=18	=18	=18	=18
*M2/2	*	*M2/2	*	*M2/2	*
1r	.	2e-,	heit,	(8ccL	Chri-
.	.	.	.	8b-J)	.
.	.	.	.	4cc	sten-
.	.	2g	dass	4b-,	heit,
.	.	.	.	4dd	dass
=19	=19	=19	=19	=19	=19
*M3/2	*	*M3/2	*	*M3/2	*
1.r	.	4e-	sie	4cc	sie
.	.	4f	dich	4dd	dich
.	.	4.e-	lob'	8b-	lob'
.	.	.	.	8a	in
.	.	.	.	2g	E-
.	.	8d	in	.	.
*	*	*^		*	*	*
.	.	4.c	4c	E-	.	.
.	.	.	4B-	.	4g	wig-
.	.	8d	.	wig	.	.
=20	=20	=20	=20	=20	=20	=20
1r	.	1en	1c	keit!	1g	keit!
*	*	*v	*v	*	*	*
==	==	==	==	==	==
*-	*-	*-	*-	*-	*-
!!!RDF**kern: N = cue size
!!!YOR: Bärenreiter-Ausgabe 676
!!!YOY: 1933
!!!EFL: 32/52
!!!URL-github: https://github.com/LucasHofmann/distler/blob/main/Jahrkreis/Distler_Jahrkreis_32_Erhalt-uns-Herr-bei-deinem-Wort.krn
!!!URL-pdf: https://imslp.eu/files/imglnks/euimg/7/7d/IMSLP834545-PMLP518834-5-jahrkreis-EA--original-paper-600dpi.pdf#page=60 First edition, Kassel: Bärenreiter, 1933. Plate BA 676.
!!!URL-imslp: https://imslp.org/wiki/Der_Jahrkreis,_Op.5_(Distler,_Hugo)#IMSLP834545
!!!system-decoration: [(s1,s2,s3)]
!!!ENC: Lucas Hofmann
!!!END: 2023/11/12
!!!title: @{OPR@@DE}, Op. @{OPS}, Nr. @{ONM}. <i>@{OTL@@DE}</i>
